www/assets/icons/camera_front.svg

<svg xmlns="http://www.w3.org/2000/svg" width="24" height="24" viewBox="0 0 24 24" fill='currentColor'><path d="M10 20H5v2h5v2l3-3-3-3zm4 0v2h5v-2zM12 8c1.1 0 2-.9 2-2s-.9-2-2-2-1.99.9-1.99 2S10.9 8 12 8m5-8H7C5.9 0 5 .9 5 2v14c0 1.1.9 2 2 2h10c1.1 0 2-.9 2-2V2c0-1.1-.9-2-2-2M7 2h10v10.5c0-1.67-3.33-2.5-5-2.5s-5 .83-5 2.5z"/></svg>

<svg width="24" height="24" viewBox="0 0 24 24" xmlns="http://www.w3.org/2000/svg" fill='currentColor'><path d="M10 20H5V22H10V24L13 21L10 18V20ZM14 20V22H19V20H14ZM12 8C13.1 8 14 7.1 14 6C14 4.9 13.1 4 12 4C10.9 4 10.01 4.9 10.01 6C10.01 7.1 10.9 8 12 8ZM17 0H7C5.9 0 5 0.9 5 2V16C5 17.1 5.9 18 7 18H17C18.1 18 19 17.1 19 16V2C19 0.9 18.1 0 17 0ZM7 2H17V12.5C17 10.83 13.67 10 12 10C10.33 10 7 10.83 7 12.5V2Z"/></svg>
